X:696
T:Reel 696
M:4/4
K:Emin
L:1/8
BA|GEDE B,A,A,2|B,EE^D EFGA||BGAF GEFD|B,EE^D EGBA:||2BGAF GEFD|B,EE^D E2|E2| (3GAG BG dGgG| (3GAG Bd eBdB| (3GAG BG dGgG|A^GAB =GEE2| (3GAG BG dGgG| (3GAG Bd eBdB|g2ge dBAB|DEF^D E2|
